resources/svg/stackshare-fill.svg

<svg fill="currentColor" viewBox="0 0 24 24" xmlns="http://www.w3.org/2000/svg"><path d="M21.001 3C21.5533 3 22.001 3.44772 22.001 4V20C22.001 20.5523 21.5533 21 21.001 21H3.00098C2.44869 21 2.00098 20.5523 2.00098 20V4C2.00098 3.44772 2.44869 3 3.00098 3H21.001ZM16.7931 5.62118C15.782 5.62118 14.9292 6.29705 14.6603 7.22158H12.6618L10.2022 11.4056H8.76433C8.49549 10.481 7.64267 9.80516 6.63133 9.80516C5.40457 9.80516 4.40993 10.8 4.40993 12.0269C4.40993 13.2536 5.40457 14.2483 6.63133 14.2483C7.64267 14.2483 8.49549 13.5724 8.76433 12.6481H10.2353L12.6523 16.7815H14.6696C14.9383 17.7057 15.7913 18.3814 16.8023 18.3814C18.0294 18.3814 19.024 17.3868 19.024 16.1599C19.024 14.933 18.0294 13.9382 16.8023 13.9382C15.7913 13.9382 14.9383 14.6142 14.6696 15.5387H13.3526L11.2968 12.0017L13.3495 8.46402H14.6603C14.9292 9.38855 15.782 10.0644 16.7931 10.0644C18.0201 10.0644 19.0148 9.06963 19.0148 7.84287C19.0148 6.61597 18.0201 5.62118 16.7931 5.62118ZM16.8044 15.0484C17.448 15.0484 17.9718 15.5721 17.9718 16.2158C17.9718 16.8596 17.448 17.3829 16.8044 17.3829C16.2384 17.3829 15.7658 16.9779 15.6598 16.4427C15.6598 16.4427 15.629 16.2164 15.6598 15.9893C15.7656 15.4537 16.2384 15.0484 16.8044 15.0484ZM6.65209 10.8387C7.29588 10.8387 7.81948 11.3622 7.81948 12.006C7.81948 12.6495 7.29588 13.1732 6.65209 13.1732C6.00844 13.1732 5.48485 12.6495 5.48485 12.006C5.48485 11.3622 6.00844 10.8387 6.65209 10.8387ZM16.8023 6.62903C17.4461 6.62903 17.9697 7.15248 17.9697 7.79627C17.9697 8.43977 17.4461 8.96352 16.8023 8.96352C16.2365 8.96352 15.7637 8.55837 15.6578 8.02287C15.6316 7.81689 15.6578 7.57679 15.6578 7.57679C15.7637 7.03418 16.2365 6.62903 16.8023 6.62903Z"/></svg>

<svg xmlns="http://www.w3.org/2000/svg" viewBox="0 0 24 24" fill="currentColor">
    <g>
        <path fill="none" d="M0 0H24V24H0z"/>
        <path d="M21 3c.552 0 1 .448 1 1v16c0 .552-.448 1-1 1H3c-.552 0-1-.448-1-1V4c0-.552.448-1 1-1h18zm-4.208 2.621c-1.011 0-1.864.676-2.133 1.6h-1.998l-2.46 4.185H8.763c-.268-.925-1.121-1.6-2.133-1.6-1.226 0-2.221.994-2.221 2.22 0 1.228.995 2.222 2.221 2.222 1.012 0 1.865-.676 2.133-1.6h1.471l2.417 4.133h2.018c.268.925 1.121 1.6 2.132 1.6 1.227 0 2.222-.994 2.222-2.221s-.995-2.222-2.222-2.222c-1.01 0-1.864.676-2.132 1.6h-1.317l-2.056-3.536 2.053-3.538h1.31c.27.925 1.122 1.6 2.133 1.6 1.227 0 2.222-.994 2.222-2.221s-.995-2.222-2.222-2.222zm.011 9.427c.644 0 1.168.524 1.168 1.168 0 .644-.524 1.167-1.168 1.167-.566 0-1.038-.405-1.144-.94 0 0-.031-.227 0-.454.106-.535.578-.94 1.144-.94zm-10.152-4.21c.644 0 1.168.524 1.168 1.168 0 .643-.524 1.167-1.168 1.167-.644 0-1.167-.524-1.167-1.167 0-.644.523-1.167 1.167-1.167zm10.15-4.209c.644 0 1.168.523 1.168 1.167s-.524 1.168-1.168 1.168c-.565 0-1.038-.406-1.144-.941-.026-.206 0-.446 0-.446.106-.543.579-.948 1.144-.948z"/>
    </g>
</svg>
